X:1
T:Crawdad
M:2/2
L:1/4
K:E
 G B/2B/2 B B| cB/2-B/2 G2| E G3| z4| G B/2B/2 B B| cB/2-B/2 G2| F F3|\
 z4| G B/2B/2 B B| cB/2-B/2 G- E| F EE/2-E/2 E/2E/2| G E E2| E E3|\
 z G2 F| E4-| E2 z2|
